; HEADER_BLOCK_START
; generated by OrcaSlicer 2.3.1 on 2026-01-02 at 15:00:57
; total layer number: 194
; filament_density: 1.08,1.08
; filament_diameter: 1.75,1.75
; max_z_height: 48.50
; HEADER_BLOCK_END

; THUMBNAIL_BLOCK_START

;
; THUMBNAIL_BLOCK_END

; THUMBNAIL_BLOCK_START

;
; THUMBNAIL_BLOCK_END

; THUMBNAIL_BLOCK_START

;
; THUMBNAIL_BLOCK_END

; external perimeters extrusion width = 0.45mm
; perimeters extrusion width = 0.45mm
; infill extrusion width = 0.45mm
; solid infill extrusion width = 0.45mm
; top infill extrusion width = 0.45mm
; first layer extrusion width = 0.50mm

; EXECUTABLE_BLOCK_START
EXCLUDE_OBJECT_DEFINE NAME=3DBenchy_1_.stl_id_0_copy_0 CENTER=200,186.5 POLYGON=[[170,177.316],[170.002,177.255],[170.007,177.199],[170.012,177.146],[170.014,177.13],[170.02,177.083],[170.028,177.025],[170.046,176.936],[170.058,176.879],[170.074,176.822],[170.081,176.796],[170.097,176.739],[170.126,176.655],[170.141,176.618],[170.162,176.564],[170.169,176.547],[170.186,176.51],[170.209,176.458],[170.231,176.416],[170.264,176.354],[170.278,176.327],[170.291,176.306],[170.34,176.227],[170.357,176.2],[170.371,176.179],[170.405,176.131],[170.44,176.084],[170.484,176.031],[170.508,176.001],[170.539,175.966],[170.578,175.923],[170.592,175.908],[170.6,175.9],[170.641,175.859],[170.661,175.84],[170.704,175.8],[170.737,175.771],[170.783,175.734],[170.793,175.725],[170.828,175.697],[170.887,175.654],[170.935,175.621],[170.979,175.592],[171.044,175.552],[171.071,175.536],[171.124,175.508],[171.148,175.495],[171.175,175.481],[171.197,175.47],[171.253,175.444],[171.312,175.419],[171.361,175.399],[171.417,175.379],[171.429,175.375],[171.472,175.361],[171.485,175.357],[171.541,175.34],[171.548,175.338],[171.584,175.328],[171.597,175.325],[171.625,175.318],[171.641,175.314],[171.71,175.299],[171.739,175.294],[171.769,175.289],[171.798,175.284],[199.812,171.386],[200.055,171.353],[200.299,171.321],[200.543,171.291],[200.882,171.252],[201.105,171.228],[201.35,171.202],[201.596,171.178],[201.842,171.156],[202.087,171.135],[202.253,171.122],[202.333,171.116],[202.523,171.102],[202.579,171.098],[202.826,171.081],[202.987,171.071],[203.071,171.066],[203.232,171.057],[203.489,171.044],[203.597,171.039],[203.619,171.038],[203.755,171.032],[203.906,171.026],[204.05,171.021],[204.167,171.017],[204.233,171.015],[204.342,171.012],[204.46,171.009],[204.548,171.007],[204.689,171.004],[204.881,171.001],[205.062,170.999],[205.18,170.998],[205.578,170.998],[205.934,171],[206.369,171.008],[206.45,171.01],[206.805,171.02],[206.912,171.024],[207.24,171.037],[207.677,171.058],[208.009,171.078],[208.092,171.083],[208.202,171.09],[208.375,171.102],[208.495,171.111],[208.641,171.122],[208.728,171.129],[208.909,171.144],[209.04,171.155],[209.832,171.28],[209.841,171.282],[210.269,171.388],[210.377,171.415],[210.595,171.47],[210.737,171.507],[210.813,171.527],[210.967,171.568],[211.248,171.645],[211.424,171.695],[211.68,171.77],[211.896,171.834],[212.111,171.9],[212.332,171.97],[212.558,172.043],[212.752,172.107],[213.008,172.194],[213.178,172.253],[213.232,172.272],[213.4,172.332],[213.601,172.405],[213.822,172.487],[214.033,172.567],[214.233,172.645],[214.343,172.688],[214.443,172.728],[214.453,172.732],[214.662,172.816],[214.871,172.902],[214.927,172.925],[215.134,173.013],[215.341,173.103],[215.547,173.193],[215.957,173.379],[216.16,173.474],[216.363,173.57],[216.565,173.668],[216.766,173.767],[216.967,173.867],[217.166,173.969],[217.366,174.072],[217.563,174.177],[217.762,174.283],[217.957,174.39],[218.153,174.499],[218.348,174.61],[218.543,174.721],[218.737,174.834],[218.93,174.949],[219.123,175.065],[219.314,175.183],[219.505,175.301],[219.696,175.422],[219.885,175.543],[220.075,175.667],[220.262,175.791],[220.45,175.917],[220.637,176.044],[220.824,176.173],[221.008,176.303],[221.193,176.434],[221.376,176.567],[221.56,176.701],[221.742,176.837],[221.923,176.974],[222.104,177.112],[222.284,177.252],[222.463,177.393],[222.642,177.536],[222.82,177.68],[222.998,177.825],[223.173,177.972],[223.523,178.27],[223.697,178.421],[223.87,178.574],[224.042,178.728],[224.214,178.884],[224.328,178.989],[224.498,179.145],[224.665,179.303],[224.832,179.462],[224.996,179.622],[225.161,179.783],[225.325,179.945],[225.486,180.109],[225.647,180.273],[225.807,180.439],[225.966,180.606],[226.124,180.774],[226.282,180.943],[226.438,181.114],[226.592,181.285],[226.745,181.458],[226.898,181.632],[227.05,181.806],[227.2,181.983],[227.349,182.16],[227.498,182.338],[227.645,182.517],[227.791,182.698],[227.936,182.88],[228.081,183.063],[228.223,183.247],[228.364,183.432],[228.505,183.618],[228.645,183.805],[228.784,183.993],[228.921,184.183],[229.056,184.374],[229.192,184.565],[229.325,184.758],[229.458,184.952],[229.589,185.147],[229.618,185.192],[229.651,185.245],[229.682,185.298],[229.713,185.352],[229.742,185.407],[229.769,185.462],[229.819,185.576],[229.834,185.617],[229.856,185.675],[229.876,185.733],[229.895,185.792],[229.912,185.851],[229.929,185.913],[229.943,185.97],[229.954,186.03],[229.966,186.093],[229.975,186.152],[229.984,186.213],[229.991,186.274],[229.995,186.336],[229.998,186.405],[230,186.466],[230,186.527],[229.999,186.588],[229.996,186.649],[229.992,186.709],[229.986,186.77],[229.977,186.831],[229.968,186.891],[229.958,186.949],[229.945,187.012],[229.932,187.069],[229.916,187.132],[229.901,187.186],[229.883,187.245],[229.863,187.303],[229.842,187.361],[229.82,187.418],[229.797,187.474],[229.771,187.53],[229.744,187.586],[229.716,187.64],[229.686,187.694],[229.655,187.748],[229.623,187.801],[229.589,187.853],[229.472,188.027],[229.339,188.221],[229.206,188.414],[229.071,188.606],[228.936,188.797],[228.797,188.987],[228.659,189.176],[228.52,189.364],[228.38,189.55],[228.237,189.736],[228.095,189.92],[227.95,190.104],[227.659,190.468],[227.51,190.648],[227.361,190.828],[227.21,191.006],[227.06,191.183],[226.907,191.36],[226.752,191.535],[226.597,191.709],[226.482,191.837],[226.325,192.009],[226.167,192.18],[226.008,192.35],[225.848,192.518],[225.688,192.686],[225.526,192.852],[225.2,193.18],[225.034,193.341],[224.869,193.502],[224.703,193.661],[224.535,193.819],[224.367,193.975],[224.199,194.13],[224.028,194.284],[223.857,194.437],[223.686,194.589],[223.512,194.739],[223.338,194.888],[223.164,195.036],[222.987,195.182],[222.811,195.327],[222.632,195.471],[222.454,195.614],[222.275,195.756],[222.093,195.896],[221.911,196.035],[221.728,196.173],[221.544,196.31],[221.359,196.445],[221.173,196.58],[220.799,196.844],[220.611,196.974],[220.421,197.103],[220.23,197.231],[220.039,197.357],[219.846,197.482],[219.653,197.606],[219.458,197.728],[219.263,197.849],[219.067,197.969],[218.869,198.087],[218.672,198.204],[218.472,198.319],[218.272,198.434],[218.072,198.546],[217.87,198.658],[217.595,198.807],[217.395,198.912],[217.196,199.016],[216.996,199.118],[216.796,199.219],[216.595,199.318],[216.392,199.416],[216.19,199.512],[215.987,199.607],[215.783,199.7],[215.579,199.792],[215.374,199.883],[215.169,199.972],[214.963,200.059],[214.756,200.145],[214.666,200.182],[214.549,200.23],[214.341,200.313],[214.122,200.398],[214.003,200.444],[213.704,200.557],[213.493,200.634],[213.293,200.706],[213.071,200.784],[212.884,200.848],[212.869,200.853],[212.656,200.924],[212.443,200.994],[212.206,201.07],[212.005,201.132],[211.979,201.14],[211.751,201.209],[211.523,201.276],[211.295,201.341],[211.142,201.384],[211.065,201.405],[210.924,201.443],[210.706,201.501],[210.606,201.527],[210.488,201.557],[210.269,201.612],[209.843,201.718],[209.316,201.819],[209.306,201.82],[209.05,201.844],[209.003,201.848],[208.81,201.864],[208.725,201.871],[208.561,201.884],[208.481,201.89],[208.134,201.914],[207.688,201.941],[207.649,201.943],[207.264,201.962],[207.126,201.968],[206.778,201.981],[206.564,201.987],[206.343,201.993],[205.907,202],[205.522,202.002],[205.177,202.002],[204.877,201.999],[204.821,201.998],[204.599,201.994],[204.456,201.991],[204.338,201.988],[204.166,201.983],[204.076,201.98],[203.93,201.975],[203.752,201.968],[203.728,201.967],[203.57,201.96],[203.462,201.955],[203.332,201.948],[203.133,201.937],[202.889,201.923],[202.644,201.907],[202.629,201.906],[202.342,201.885],[202.096,201.866],[201.849,201.845],[201.667,201.828],[201.603,201.822],[201.423,201.805],[201.179,201.78],[201.111,201.773],[200.935,201.754],[200.619,201.718],[200.373,201.688],[200.204,201.666],[199.882,201.624],[171.827,197.72],[171.792,197.715],[171.743,197.707],[171.686,197.696],[171.653,197.689],[171.597,197.675],[171.584,197.672],[171.548,197.662],[171.536,197.659],[171.481,197.642],[171.429,197.625],[171.417,197.621],[171.361,197.601],[171.312,197.581],[171.253,197.556],[171.197,197.53],[171.155,197.509],[171.105,197.482],[171.086,197.472],[171.044,197.448],[170.993,197.417],[170.979,197.408],[170.944,197.385],[170.935,197.379],[170.887,197.346],[170.847,197.317],[170.84,197.311],[170.793,197.275],[170.756,197.244],[170.749,197.238],[170.704,197.2],[170.661,197.16],[170.641,197.14],[170.592,197.092],[170.557,197.055],[170.539,197.034],[170.519,197.011],[170.481,196.966],[170.445,196.92],[170.431,196.902],[170.41,196.874],[170.407,196.87],[170.373,196.822],[170.357,196.8],[170.342,196.778],[170.308,196.724],[170.278,196.673],[170.25,196.622],[170.231,196.584],[170.218,196.56],[170.195,196.512],[170.169,196.454],[170.148,196.403],[170.127,196.349],[170.109,196.293],[170.107,196.29],[170.09,196.238],[170.075,196.182],[170.06,196.125],[170.046,196.064],[170.035,196.007],[170.026,195.954],[170.025,195.948],[170.016,195.896],[170.012,195.853],[170.008,195.825],[170.002,195.745],[170,195.708],[170,195.679],[170,177.316]]
M73 P0 R10
;TYPE:Custom
M191 S40 ;set chamber_temperature and wait for it to be reached
START_PRINT EXTRUDER_TEMP=270 MATERIAL=ASA
G90
G21
M83 ; use relative distances for extrusion
; Filament gcode
SET_PRESSURE_ADVANCE ADVANCE=0.066; Override pressure advance value
; MANUAL_TOOL_CHANGE T0
M106 S0
;LAYER_CHANGE
;Z:0.25
;HEIGHT:0.25
G92 E0
G1 E-.5 F2400
;_SET_FAN_SPEED_CHANGING_LAYER
SET_VELOCITY_LIMIT ACCEL=10000
G1 Z.65 F42000
G1 X171.566 Y169.766
G1 Z.65
G1 Z.25
G1 E.5 F1800

;TYPE:Skirt
;WIDTH:0.5
SET_PRESSURE_ADVANCE ADVANCE=0.027; Override pressure advance value
G1 F9000
G1 X171.868 Y169.649 E.01387
G1 X173.683 Y169.231 E.07963
G1 X174.829 Y169.108 E.0493
G1 X198.504 Y167.665 E1.01422
G1 X200.341 Y167.62 E.07856
G1 X203.535 Y167.855 E.13693
G1 X205.189 Y168.136 E.07176
G1 X206.843 Y168.531 E.07272
G1 X208.487 Y169.038 E.07355
G1 X210.036 Y169.631 E.07094
G1 X211.589 Y170.346 E.0731
G1 X212.949 Y171.078 E.06606
G1 X214.386 Y171.973 E.07238
G1 X215.737 Y172.942 E.07109
G1 X217.167 Y174.124 E.07932
G1 X218.198 Y175.091 E.06044
G1 X219.453 Y176.43 E.07849
G1 X220.523 Y177.738 E.07226
G1 X221.504 Y179.11 E.07213
G1 X222.324 Y180.431 E.0665
G1 X222.988 Y181.748 E.06306
G1 X223.417 Y182.899 E.05253
G1 X223.74 Y184.162 E.05574
G1 X223.917 Y185.364 E.05196
G1 X223.962 Y186.951 E.06788
G1 X223.857 Y188.144 E.05119
G1 X223.604 Y189.44 E.05647
G1 X222.97 Y191.295 E.08385
G1 X222.271 Y192.66 E.06557
G1 X221.666 Y193.641 E.04929
G1 X220.025 Y195.894 E.11917
G1 X218.082 Y198.023 E.12324
G1 X216.452 Y199.49 E.09378
G1 X214.514 Y200.941 E.10351
G1 X212.533 Y202.157 E.09942
G1 X210.317 Y203.249 E.10563
G1 X208.405 Y203.99 E.08769
G1 X205.956 Y204.695 E.10897
G1 X203.435 Y205.159 E.10959
G1 X201.163 Y205.357 E.09754
G1 X198.483 Y205.334 E.11459
G1 X173.75 Y203.779 E1.05968
G1 X171.903 Y203.363 E.08096
G1 X170.142 Y202.672 E.08085
G1 X168.18 Y201.488 E.098
G1 X166.726 Y200.229 E.08223
G1 X165.582 Y198.892 E.07526
G1 X164.629 Y197.384 E.07629
G1 X163.923 Y195.815 E.07357
G1 X163.421 Y194.079 E.07729
G1 X163.147 Y191.801 E.09809
G1 X163.14 Y181.566 E.43764
G1 X163.202 Y180.34 E.0525
G1 X163.421 Y178.922 E.06137
G1 X163.671 Y177.941 E.04326
G1 X164.212 Y176.472 E.06693
G1 X165.111 Y174.793 E.08144
G1 X166.043 Y173.523 E.06738
G1 X166.779 Y172.718 E.04662
G1 X168.134 Y171.546 E.07661
G1 X169.493 Y170.665 E.06927
G1 X170.266 Y170.269 E.03712
G1 X171.529 Y169.781 E.05789
G1 X171.689 Y170.196 F42000
G1 F9000
G1 X172.004 Y170.075 E.01441
G1 X173.749 Y169.672 E.07659
G1 X198.531 Y168.111 E1.06181
G1 X200.339 Y168.066 E.07731
G1 X203.47 Y168.297 E.13424
G1 X205.102 Y168.574 E.07079
G1 X206.722 Y168.96 E.07121
G1 X208.343 Y169.461 E.07255
G1 X209.861 Y170.041 E.06949
G1 X212.728 Y171.466 E.13688
G1 X214.136 Y172.342 E.07091
G1 X215.469 Y173.299 E.07018
G1 X217.881 Y175.406 E.13695
G1 X219.119 Y176.726 E.07737
G1 X220.171 Y178.012 E.07105
G1 X221.133 Y179.36 E.07081
G1 X221.939 Y180.657 E.06531
G1 X222.577 Y181.922 E.06059
G1 X222.991 Y183.031 E.05059
G1 X223.303 Y184.252 E.05389
G1 X223.472 Y185.404 E.04978
G1 X223.516 Y186.937 E.06557
G1 X223.416 Y188.079 E.04905
G1 X223.172 Y189.328 E.05437
G1 X222.56 Y191.119 E.08094
G1 X221.888 Y192.43 E.06301
G1 X221.29 Y193.401 E.04877
G1 X219.455 Y195.883 E.13198
G1 X217.554 Y197.913 E.11891
G1 X215.952 Y199.321 E.0912
G1 X214.08 Y200.694 E.09927
G1 X212.044 Y201.915 E.1015
G1 X209.832 Y202.97 E.10482
G1 X207.524 Y203.808 E.10497
G1 X205.403 Y204.363 E.09375
G1 X203.38 Y204.716 E.08781
G1 X201.148 Y204.911 E.09583
G1 X198.51 Y204.888 E.11278
G1 X173.817 Y203.338 E1.05798
G1 X172.034 Y202.936 E.07812
G1 X170.335 Y202.269 E.07807
G1 X168.447 Y201.13 E.09429
G1 X167.042 Y199.914 E.07944
G1 X165.94 Y198.625 E.07253
G1 X165.023 Y197.175 E.07334
G1 X164.343 Y195.663 E.07093
G1 X163.857 Y193.984 E.07474
G1 X163.593 Y191.786 E.09464
G1 X163.587 Y181.566 E.437
G1 X163.646 Y180.381 E.05076
G1 X163.857 Y179.017 E.05902
G1 X164.099 Y178.067 E.04191
G1 X164.619 Y176.654 E.06436
G1 X165.488 Y175.032 E.0787
G1 X166.384 Y173.811 E.06478
G1 X167.096 Y173.032 E.04511
G1 X168.402 Y171.903 E.07382
G1 X169.709 Y171.056 E.06659
G1 X170.453 Y170.674 E.03577
G1 X171.652 Y170.211 E.05495
; printing object 3DBenchy (1).stl id:0 copy 0
;WIPE_START
G1 X172.004 Y170.075 E-.09423
G1 X173.585 Y169.71 E-.40577
;WIPE_END
EXCLUDE_OBJECT_START NAME=3DBenchy_1_.stl_id_0_copy_0
G1 Z.65 F42000
G1 X201.209 Y189.987 Z.65
G1 Z.25
G1 E.5 F1800

MARK_SKIRT_COMPLETE

;TYPE:Outer wall
SET_PRESSURE_ADVANCE ADVANCE=0.025; Override pressure advance value
G1 F12000
G3 X200.662 Y189.722 I.058 J-.819 E.02666
G3 X200.375 Y189.124 I1.167 J-.927 E.0286
G2 X200.086 Y188.707 I-1.375 J.645 E.0218
G1 X199.946 Y188.987 E.01338
G1 X199.948 Y189.143 E.00669
G3 X199.63 Y189.639 I-21.899 J-13.691 E.02522
G3 X198.398 Y189.506 I-.581 J-.386 E.06521
G3 X198.433 Y188.791 I.781 J-.321 E.03162
G3 X198.545 Y188.456 I1.581 J.345 E.01513
G3 X198.952 Y187.682 I5.835 J2.574 E.03741
G2 X199.245 Y187.276 I-20.219 J-14.876 E.02142
G3 X198.775 Y186.503 I7.334 J-4.982 E.0387
G3 X198.324 Y185.579 I3.236 J-2.152 E.04408
G3 X198.965 Y184.631 I.745 J-.187 E.0552
G3 X199.789 Y185.009 I.12 J.825 E.04098
G2 X200.187 Y185.708 I2.011 J-.683 E.03461
G2 X200.46 Y185.275 I-2.664 J-1.983 E.02191
G3 X200.696 Y184.886 I.688 J.151 E.01982
G3 X201.116 Y184.629 I.75 J.752 E.02123
G3 X201.826 Y184.927 I.095 J.77 E.03447
G3 X201.973 Y185.281 I-.345 J.35 E.01683
G3 X201.923 Y185.774 I-1.281 J.121 E.02133
G2 X201.173 Y187.078 I73.141 J42.975 E.0643
G1 X201.161 Y187.114 E.00165
G2 X201.261 Y187.52 I.404 J.115 E.01869
G3 X201.957 Y188.692 I-64.464 J39.048 E.05828
G3 X201.789 Y189.802 I-.814 J.445 E.05156
G3 X201.209 Y189.987 I-.521 J-.634 E.02664
G1 E-.1 F2400
;WIPE_START
G1 F12000
G1 X201.024 Y189.957 E-.03757
G1 X200.862 Y189.895 E-.03466
G1 X200.662 Y189.722 E-.05302
G1 X200.465 Y189.415 E-.07295
G1 X200.375 Y189.124 E-.06089
G1 X200.253 Y188.911 E-.04903
G1 X200.086 Y188.707 E-.0528
G1 X199.998 Y188.881 E-.03907
;WIPE_END
G1 Z.65 F42000
G1 X202.889 Y192.532 Z.65
G1 Z.25
G1 E.5 F1800
G1 F12000
G3 X202.701 Y192.526 I-.033 J-1.929 E.00807
G3 X201.961 Y191.557 I.193 J-.914 E.05678
G3 X202.566 Y190.893 I.71 J.039 E.04157
G2 X203.11 Y190.671 I-.111 J-1.051 E.02547
G2 X203.358 Y190.228 I-.724 J-.696 E.02196
G3 X203.732 Y189.338 I20.783 J8.215 E.04126
G2 X203.71 Y189.08 I-.371 J-.098 E.01129
G3 X203.265 Y187.979 I13.113 J-5.941 E.0508
